src/icons/blockchains/dark/injective.svg

<svg width="24" height="24" viewBox="0 0 24 24" fill="none" xmlns="http://www.w3.org/2000/svg">
  <rect width="24" height="24" rx="12" fill="#080530" />
  <mask
    id="mask0_1131_18492"
    style="mask-type: alpha"
    maskUnits="userSpaceOnUse"
    x="4"
    y="4"
    width="16"
    height="16"
  >
    <rect x="4" y="4" width="16" height="16" fill="#D9D9D9" />
  </mask>
  <g mask="url(#mask0_1131_18492)">
    <path
      d="M6.69741 7.41741C6.78434 7.30824 6.87643 7.20315 6.96857 7.09811C6.97271 7.09294 6.98207 7.09186 6.9862 7.08669C6.99446 7.0763 7.00796 7.06999 7.01623 7.0596L7.02449 7.04921C7.08873 6.98992 7.15705 6.92541 7.23582 6.86916C7.51459 6.65773 7.80386 6.49716 8.1089 6.39147C9.08725 6.04835 10.1763 6.25978 11.0303 7.06531C12.2228 8.18198 12.1161 9.98093 11.1641 11.1766C9.96121 12.9591 7.89394 15.4459 10.7562 17.6737C11.2709 18.0743 11.6527 18.4045 13.2738 18.8725C12.2135 19.0676 11.2305 19.0069 10.1362 18.7277C9.36221 18.2913 8.14529 17.3568 7.7313 16.0947C7.10554 14.1807 8.83295 11.3194 9.6678 10.2174C10.814 8.69237 8.95936 7.04138 7.59395 8.88449C6.88018 9.8451 5.63155 12.5632 6.06545 14.5794C6.31915 15.7227 6.65733 16.5562 7.99821 17.7009C7.74957 17.5544 7.50812 17.3881 7.27389 17.2021C4.15848 14.303 4.51994 9.82035 6.69741 7.41741Z"
      fill="white"
    />
    <path
      d="M17.3029 16.5689C17.216 16.6781 17.1239 16.7832 17.0318 16.8882C17.0276 16.8933 17.0182 16.8944 17.0141 16.8996C17.0059 16.91 16.9923 16.9163 16.9841 16.9267L16.9759 16.9371C16.9116 16.9964 16.8432 17.0608 16.7645 17.1172C16.4857 17.3286 16.1964 17.4891 15.8914 17.5948C14.913 17.9379 13.824 17.7265 12.97 16.921C11.7775 15.8043 11.8843 14.0053 12.8361 12.8097C14.0391 11.0272 16.1063 8.54037 13.2441 6.31258C12.7294 5.91207 12.3476 5.58178 10.7266 5.11377C11.7868 4.91866 12.7699 4.97936 13.864 5.25857C14.6381 5.69503 15.855 6.62948 16.2689 7.89166C16.8947 9.80565 15.1674 12.6669 14.3325 13.7688C13.1863 15.2939 15.041 16.9449 16.4064 15.1018C17.1201 14.1412 18.3688 11.4231 17.9349 9.40688C17.6811 8.26356 17.343 7.43012 16.0021 6.28532C16.2507 6.43187 16.4922 6.59815 16.7264 6.78418C19.8418 9.68326 19.4804 14.166 17.3029 16.5689Z"
      fill="white"
    />
  </g>
</svg>

<svg
  xmlns="http://www.w3.org/2000/svg"
  width="24"
  height="24"
  fill="none"
  xmlns:v="https://vecta.io/nano"
>
  <rect width="24" height="24" rx="12" fill="#080530" />
  <mask id="A" maskUnits="userSpaceOnUse" x="4" y="4" width="16" height="16" mask-type="alpha">
    <path fill="#d9d9d9" d="M4 4h16v16H4z" />
  </mask>
  <g mask="url(#A)">
    <path
      d="M6.697 7.417l.271-.319c.004-.005.014-.006.018-.011s.022-.017.03-.027l.008-.01.211-.18a3.15 3.15 0 0 1 .873-.478c.978-.343 2.067-.132 2.921.674 1.192 1.117 1.086 2.916.134 4.111-1.203 1.782-3.27 4.269-.408 6.497.515.401.896.731 2.518 1.199-1.06.195-2.043.134-3.138-.145-.774-.436-1.991-1.371-2.405-2.633-.626-1.914 1.102-4.775 1.936-5.877 1.146-1.525-.708-3.176-2.074-1.333-.714.961-1.962 3.679-1.529 5.695.254 1.143.592 1.977 1.933 3.122a6.34 6.34 0 0 1-.724-.499c-3.114-2.9-2.752-7.383-.575-9.786zm10.606 9.152l-.271.319c-.004.005-.014.006-.018.011-.008.01-.022.017-.03.027l-.008.01-.211.18c-.279.211-.568.372-.873.478-.978.343-2.067.132-2.921-.674-1.193-1.117-1.086-2.916-.134-4.111 1.203-1.782 3.27-4.269.408-6.497-.515-.401-.896-.731-2.517-1.199 1.06-.195 2.043-.134 3.137.145.774.436 1.991 1.371 2.405 2.633.626 1.914-1.101 4.775-1.936 5.877-1.146 1.525.709 3.176 2.074 1.333.714-.961 1.962-3.679 1.528-5.695-.254-1.143-.592-1.977-1.933-3.122a6.35 6.35 0 0 1 .724.499c3.115 2.899 2.754 7.382.576 9.785z"
      fill="#fff"
    />
  </g>
</svg>
